storage/app/icons/phosphoricons/regular/circles-three-plus.svg

<svg xmlns="http://www.w3.org/2000/svg" fill="currentColor" viewBox="0 0 256 256"><path d="M80 40a40 40 0 1 0 40 40 40 40 0 0 0-40-40m0 64a24 24 0 1 1 24-24 24 24 0 0 1-24 24m96 16a40 40 0 1 0-40-40 40 40 0 0 0 40 40m0-64a24 24 0 1 1-24 24 24 24 0 0 1 24-24m-96 80a40 40 0 1 0 40 40 40 40 0 0 0-40-40m0 64a24 24 0 1 1 24-24 24 24 0 0 1-24 24m136-24a8 8 0 0 1-8 8h-24v24a8 8 0 0 1-16 0v-24h-24a8 8 0 0 1 0-16h24v-24a8 8 0 0 1 16 0v24h24a8 8 0 0 1 8 8"/></svg>

<svg xmlns="http://www.w3.org/2000/svg" viewBox="0 0 256 256" fill="currentColor"><path d="M80,40a40,40,0,1,0,40,40A40,40,0,0,0,80,40Zm0,64a24,24,0,1,1,24-24A24,24,0,0,1,80,104Zm96,16a40,40,0,1,0-40-40A40,40,0,0,0,176,120Zm0-64a24,24,0,1,1-24,24A24,24,0,0,1,176,56ZM80,136a40,40,0,1,0,40,40A40,40,0,0,0,80,136Zm0,64a24,24,0,1,1,24-24A24,24,0,0,1,80,200Zm136-24a8,8,0,0,1-8,8H184v24a8,8,0,0,1-16,0V184H144a8,8,0,0,1,0-16h24V144a8,8,0,0,1,16,0v24h24A8,8,0,0,1,216,176Z"/></svg>
